!!!!SEGMENT: pl-kk--kk-i-382--007-003_anonim--nro-2-agnus.krn
!!!cenid: 18xx:1465
!!!COM: Anonim
!!!COM-rism: pe30004985
!!!CDT:
!!!CNT:
!!!OTL: Nro 2 Agnus
!!!PDT:
!!!AGN: Sacred
!!!SMS-siglum: PL-Kk
!!!SMS-shelfmark: Kk.I.382
!!!NIFC-rismID: 1001139090
!!!URL-scan: http://repozytorium.nifc.pl/skany/pl-kk-nut--i-382
!!!ONB-nifc: UWAGA: obsada: S (T 1), T 2, A (B 1), B 2; S (T 1): skan 0008; A (B 1): skan 0151-0152; T 2: skan 0079; B 2: skan 0224;
!!!SMS-variant:
!!!SMS-altvar:
**kern	**text	**kern	**text	**kern	**text	**kern	**text
*part4	*part4	*part3	*part3	*part2	*part2	*part1	*part1
*staff4	*staff4	*staff3	*staff3	*staff2	*staff2	*staff1	*staff1
*I"Basso II	*	*I"Tenore II	*	*I"Alto vel Basso I	*	*I"Soprano vel Tenore I.	*
*I'B II	*	*I'T II	*	*I'A (B 1)	*	*I'S (T 1)	*
*clefF4	*	*clefC4	*	*clefC3	*	*clefC1	*
*k[b-]	*	*k[b-]	*	*k[b-]	*	*k[b-]	*
*M4/4	*	*M4/4	*	*M4/4	*	*M4/4	*
*met(C.)	*	*met(C.)	*	*met(C.)	*	*met(C.)	*
=1	=1	=1	=1	=1	=1	=1	=1
*2\right	*	*2\right	*	*2\right	*	*2\right	*
!LO:TX:t=P:problem:all\right:global	!	!LO:TX:t=P:problem:all\right:global	!	!LO:TX:t=P:problem:all\right:global	!	!LO:TX:t=P:problem:all\right:global	!
!	!	!LO:TX:a:t=P:problem:w źródle "in F." zapisane przed pierwszym taktem, nad pięciolinią	!	!	!	!	!
!	!	!LO:TX:a:i:t=in F.	!	!	!	!	!
!LO:TX:a:t=P:problem:w źródle "Agnus" zapisane przed pierwszym taktem, na pięciolinii	!	!LO:TX:a:t=P:problem:w źródle "Agnus" zapisane przed pierwszym taktem, na pięciolinii	!	!LO:TX:a:t=P:problem:w źródle "Agnus." zapisane przed pierwszym taktem, na pięciolinii	!	!LO:TX:a:t=P:problem:w źródle "Agnus." zapisane przed pierwszym taktem, na pięciolinii	!
!LO:TX:a:i:t=Agnus	!	!LO:TX:a:i:t=Agnus	!	!LO:TX:a:i:t=Agnus.	!	!LO:TX:a:i:t=Agnus.	!
4F\	A-	4c\	A-	4a\	A-	4cc\	A-
4G\	-gnus	4c\	-gnus	4g\	-gnus	4b-\	-gnus
4A\	De-	4c\	De-	4f\	De-	4a\	De-
8B-\	-i	8c\	-i	8g\	-i	8b-\	-i
8Bn\	qui	8c\	qui	8f\	qui	8a\	qui
=2	=2	=2	=2	=2	=2	=2	=2
4c\	tol-	4c\	tol-	4f\	tol-	4a\	tol-
4C/	-lis	4c\	-lis	4e\	-lis	4g\	-lis
4r	.	4r	.	4r	.	4r	.
4C/	qui	4c\	qui	(>8e\L	qui	(>8g\L	qui
.	.	.	.	8f\J)	.	8a\J)	.
=3	=3	=3	=3	=3	=3	=3	=3
2C/	tol-	2c\	tol-	(>4g\	tol-	(>4b-\	tol-
.	.	.	.	4f\)	.	4a\)	.
4C/	-lis	4c\	-lis	4g\	-lis	4b-\	-lis
4C/	pec-	4c\	pec-	4e\	pec-	4g\	pec-
=4	=4	=4	=4	=4	=4	=4	=4
2F\	-ca-	2.c\	-ca-	(>4f\	-ca-	(>4a\	-ca-
.	.	.	.	4a\)	.	4cc\)	.
(>4E\	-ta	.	.	(>4g\	-ta	(>4b-\	-ta
4F\)	.	4c\	-ta	4f\)	.	4a\)	.
!LO:LB:g=original	!	!LO:LB:g=original	!	!	!	!LO:LB:g=original	!
=5	=5	=5	=5	=5	=5	=5	=5
2C/	mun-	2c\	mun-	2f\	mun-	2a\	mun-
2C/	-di	2c\	-di	2e\	-di	2g\	-di
!	!	!	!	!LO:LB:g=original	!	!	!
=6	=6	=6	=6	=6	=6	=6	=6
2.C/	mi-	2.G/	mi-	2.e\	mi-	2.cc\	mi-
4C/	-se-	4G/	-se-	4e\	-se-	4cc\	-se-
=7	=7	=7	=7	=7	=7	=7	=7
2.D/	-re-	2G/	-re-	2f\	-re-	2bn\	-re-
.	.	2G/	-re	2f\	-re	2b\	-re
4D/	-re	.	.	.	.	.	.
=8	=8	=8	=8	=8	=8	=8	=8
2.E\	mi-	2.c\	mi-	2g\	mi-	2b-X\	mi-
.	.	.	.	2g\	-se-	2b-\	-se-
4E\	-se-	4c\	-se-	.	.	.	.
=9	=9	=9	=9	=9	=9	=9	=9
(>4F\	-re-	(>4c\	-re-	(>4f\	-re-	(>4a\	-re-
4G\)	.	4B-\)	.	4e\)	.	4b-\)	.
(>4A\	-re	(>4A\	-re	(>4f\	-re	(>4cc\	-re
4B-\)	.	4B-\)	.	4g\)	.	4dd\)	.
=10	=10	=10	=10	=10	=10	=10	=10
(>2c\	no-	1c	no-	(>2f\	no-	(>2a\	no-
2C/)	.	.	.	2e\)	.	2g\)	.
=11	=11	=11	=11	=11	=11	=11	=11
2.F\	-bis	2.c\	-bis	2.f\	-bis	2.a\	-bis
!LO:TX:a:t=P:problem:w źródle "V: S:" zapisane za taktem 11, na pięciolinii	!	!	!	!LO:TX:a:t=P:problem:w źródle "V: S:" zapisane za taktem 11, na pięciolinii	!	!	!
!LO:TX:b:i:t=V&colon; S&colon;	!	!	!	!LO:TX:b:i:t=V&colon; S&colon;	!	!	!
4r	.	4r	.	4r	.	4r	.
!LO:PB:g=original	!	!	!	!LO:PB:g=original	!	!	!
=12	=12	=12	=12	=12	=12	=12	=12
2.C/	mi-	2.G/	mi-	2.e\	mi-	2.cc\	mi-
4C/	-se-	4G/	-se-	4e\	-se-	4cc\	-se-
!	!	!LO:LB:g=original	!	!	!	!LO:LB:g=original	!
=13	=13	=13	=13	=13	=13	=13	=13
2.D\	-re-	2G/	-re-	2f\	-re-	2bn\	-re-
.	.	2G/	-re	2f\	-re	2b\	-re
4D\	-re	.	.	.	.	.	.
=14	=14	=14	=14	=14	=14	=14	=14
2.E\	mi-	2.c\	mi-	2.g\	mi-	2b-X\	mi-
.	.	.	.	.	.	2b-\	-se-
4E\	-se-	4c\	-se-	4g\	-se-	.	.
=15	=15	=15	=15	=15	=15	=15	=15
(>4F\	-re-	(>4c\	-re-	(>4f\	-re-	(>4a\	-re-
4G\)	.	4B-\)	.	4e\)	.	4b-\)	.
(>4A\	-re	(>4A\	-re	(>4f\	-re	(>4cc\	-re
4B-\)	.	4B-\)	.	4g\)	.	4dd\)	.
=16	=16	=16	=16	=16	=16	=16	=16
(>2c\	no-	1c	no-	(>2f\	no-	(>2a\	no-
2C/)	.	.	.	2e\)	.	2g\)	.
=17	=17	=17	=17	=17	=17	=17	=17
1F	-bis	1c	-bis	1f	-bis	1a	-bis
!LO:LB:g=original	!	!LO:LB:g=original	!	!LO:LB:g=original	!	!	!
==18	==18	==18	==18	==18	==18	==18	==18
*M4/4	*	*M4/4	*	*M4/4	*	*M4/4	*
*met(C.)	*	*met(C.)	*	*met(C.)	*	*met(C.)	*
2F\	A-	2F/	A-	2c\	A-	2a\	A-
2F\	-gnus	2F/	-gnus	2d\	-gnus	2b-\	-gnus
=19	=19	=19	=19	=19	=19	=19	=19
(>4F\	De-	(>4c\	De-	(>4c\	De-	(>4a\	De-
4C/)	.	4B-\)	.	8d\L	.	8b-\L	.
.	.	.	.	8e\J)	.	8g\J)	.
4FF/	-i	4c\	-i	4f\	-i	4a\	-i
4F\	qui	4c\	qui	4f\	qui	4a\	qui
!	!	!	!	!	!	!LO:LB:g=original	!
=20	=20	=20	=20	=20	=20	=20	=20
4c\	tol-	4c\	tol-	(>8f\L	tol-	(>8a\L	tol-
.	.	.	.	8e\J)	.	8g\J)	.
4C/	-lis	4c\	-lis	4e\	-lis	4g\	-lis
4r	.	4r	.	4r	.	4r	.
4F\	pec-	4c\	pec-	4f\	pec-	4a\	pec-
=21	=21	=21	=21	=21	=21	=21	=21
2C/	-ca-	2c\	-ca-	(>4g\	-ca-	(>4b-\	-ca-
.	.	.	.	4f\)	.	4a\)	.
2C/	-ta	2c\	-ta	(>4g\	-ta	(>4b-\	-ta
.	.	.	.	4e\)	.	4g\)	.
=22	=22	=22	=22	=22	=22	=22	=22
(>4F\	mun-	1c	mun-	1f	mun-	1a	mun-
4c\	.	.	.	.	.	.	.
4A\	.	.	.	.	.	.	.
4F\)	.	.	.	.	.	.	.
=23	=23	=23	=23	=23	=23	=23	=23
1C	-di	1c	-di.	1e	-di.	1g	-di.
!LO:LB:g=original	!	!LO:LB:g=original	!	!LO:LB:g=original	!	!LO:LB:g=original	!
==24	==24	==24	==24	==24	==24	==24	==24
*M4/4	*	*M4/4	*	*M4/4	*	*M4/4	*
*met(C.)	*	*met(C.)	*	*met(C.)	*	*met(C.)	*
!LO:TX:a:t=P:problem:w źródle "Dona" zapisane przed taktem 24, na pięciolinii	!	!LO:TX:a:t=P:problem:w źródle "Dona." zapisane przed taktem 24, na pięciolinii	!	!LO:TX:a:t=P:problem:w źródle "Dona" zapisane przed taktem 24, na pięciolinii	!	!LO:TX:a:t=P:problem:w źródle "Dona" zapisane przed taktem 24, na pięciolinii	!
!LO:TX:a:i:t=Dona	!	!LO:TX:a:i:t=Dona.	!	!LO:TX:a:i:t=Dona	!	!LO:TX:a:i:t=Dona	!
(>4F\	Do-	(>4A\	Do-	2.c\	Do-	2.a\	Do-
4G\)	.	4B-\)	.	.	.	.	.
(>4A\	-na	(>4c\	-na	.	.	.	.
4F\)	.	4A\)	.	4c\	-na	4a\	-na
=25	=25	=25	=25	=25	=25	=25	=25
!	!	!LO:SIC:v:s=2B-	!	!	!	!	!
(>4B-\	no-	2c\	no-	2d\	no-	2b-\	no-
4A\)	.	.	.	.	.	.	.
!	!	!LO:SIC:v:s=2B-	!	!	!	!	!
(>4G\	-bis	2c\	-bis	2d\	-bis	2b-\	-bis
4F\)	.	.	.	.	.	.	.
=26	=26	=26	=26	=26	=26	=26	=26
(>4E\	pa-	1c	pa-	1e	pa-	1g	pa-
4D\	.	.	.	.	.	.	.
4E\	.	.	.	.	.	.	.
4C/)	.	.	.	.	.	.	.
=27	=27	=27	=27	=27	=27	=27	=27
2.F\	-cem	2.c\	-cem	1f	-cem	1a	-cem
4r	.	4r	.	.	.	.	.
=28	=28	=28	=28	=28	=28	=28	=28
(>4F\	do-	2.c\	Do-	2.a\	Do-	2.ff\	do-
4E\)	.	.	.	.	.	.	.
(>4F\	-na	.	.	.	.	.	.
4D\)	.	4Bn\	-na	4a\	-na	4ff\	-na
=29	=29	=29	=29	=29	=29	=29	=29
(>4E\	no-	2c\	no-	2.g\	no-	2.ee\	no-
4D\)	.	.	.	.	.	.	.
(>4E\	-bis	2c\	-bis	.	.	.	.
4C\)	.	.	.	4g\	-bis	4ee\	-bis
=30	=30	=30	=30	=30	=30	=30	=30
(>4F\	pa-	1Bn	pa-	1f	pa-	1dd	pa-
4D\	.	.	.	.	.	.	.
2G\)	.	.	.	.	.	.	.
=31	=31	=31	=31	=31	=31	=31	=31
1C	-cem	2.G/	-cem	1e	-cem	2.cc\	-cem
.	.	4r	.	.	.	4r	.
!LO:LB:g=original	!	!LO:LB:g=original	!	!	!	!	!
=32	=32	=32	=32	=32	=32	=32	=32
2C/	do-	2c\	do-	2g\	do-	2ee\	do-
2c\	-na	2c\	-na	2g\	-na	2ee\	-na
!	!	!	!	!LO:LB:g=original	!	!LO:LB:g=original	!
=33	=33	=33	=33	=33	=33	=33	=33
2c\	no-	2c\	no-	(>8g\L	no-	(>8ee\L	no-
.	.	.	.	8f\	.	8dd\	.
.	.	.	.	8e\	.	8cc\	.
.	.	.	.	8f\J)	.	8dd\J)	.
4c\	-bis	4c\	-bis	2g\	-bis	2ee\	-bis
4r	.	4r	.	.	.	.	.
=34	=34	=34	=34	=34	=34	=34	=34
2C/	no-	2c\	no-	2g\	no-	2ee\	no-
2B-X\	-bis	2c\	-bis	2g\	-bis	2ee\	-bis
=35	=35	=35	=35	=35	=35	=35	=35
2B-X\	pa-	2c\	pa-	(>8g\L	pa-	(>8ee\L	pa-
.	.	.	.	8f\	.	8dd\	.
.	.	.	.	8e\	.	8cc\	.
.	.	.	.	8f\J)	.	8dd\J)	.
4B-\	-cem	4c\	-cem	2g\	-cem	2ee\	-cem
4r	.	4r	.	.	.	.	.
=36	=36	=36	=36	=36	=36	=36	=36
4A\	do-	4A\	do-	4f\	do-	4cc\	do-
4G\	-na	4B-\	-na	4g\	-na	4b-\	-na
4F\	no-	4c\	no-	4a\	no-	4a\	no-
4E\	-bis	4c\	-bis	4b-\	-bis	4g\	-bis
=37	=37	=37	=37	=37	=37	=37	=37
(>4F\	pa-	(>4f\	pa-	(>4a\	pa-	(>4cc\	pa-
4G\)	.	4c\)	.	4g\)	.	4b-\)	.
(>4A\	-cem	4c\	-cem	4f\	-cem	4a\	-cem
4F\)	.	4A\	da	4a\	da	4cc\	da
=38	=38	=38	=38	=38	=38	=38	=38
(>4B-\	pa-	(>2B-\	pa-	(>4g\	pa-	(>4dd\	pa-
4G\	.	.	.	4b-\	.	4gg\	.
4c\	.	2c\)	.	4a\	.	4ff\	.
4C/)	.	.	.	4g\)	.	4ee\)	.
!	!	!LO:LB:g=original	!	!	!	!	!
=39	=39	=39	=39	=39	=39	=39	=39
1F	-cem	2.c\	-cem	2.a\	-cem	2.ff\	-cem
.	.	4r	.	4r	.	4r	.
!LO:LB:g=original	!	!	!	!LO:LB:g=original	!	!LO:LB:g=original	!
=40	=40	=40	=40	=40	=40	=40	=40
2C/	do-	2c\	do-	2g\	do-	2ee\	do-
2c\	-na	2c\	-na	2g\	-na	2ee\	-na
=41	=41	=41	=41	=41	=41	=41	=41
2c\	no-	2c\	no-	(>8g\L	no-	(>8ee\L	no-
.	.	.	.	8f\	.	8dd\	.
.	.	.	.	8e\	.	8cc\	.
.	.	.	.	8f\J)	.	8dd\J)	.
4c\	-bis	4c\	-bis	2g\	-bis	2ee\	-bis
4r	.	4r	.	.	.	.	.
=42	=42	=42	=42	=42	=42	=42	=42
2C/	no-	2c\	no-	2g\	no-	2ee\	no-
2B-\	-bis	2c\	-bis	2g\	-bis	2ee\	-bis
=43	=43	=43	=43	=43	=43	=43	=43
2B-\	pa-	2c\	pa-	(>8g\L	pa-	(>8ee\L	pa-
.	.	.	.	8f\	.	8dd\	.
.	.	.	.	8e\	.	8cc\	.
.	.	.	.	8f\J)	.	8dd\J)	.
4B-\	-cem	4c\	-cem	2g\	-cem	2ee\	-cem
4r	.	4r	.	.	.	.	.
=44	=44	=44	=44	=44	=44	=44	=44
4A\	do-	4A\	do-	4f\	do-	4cc\	do-
4G\	-na	4B-\	-na	4g\	-na	4b-\	-na
4F\	no-	4c\	no-	4a\	no-	4a\	no-
4E\	-bis	4c\	-bis	4b-\	-bis	4g\	-bis
=45	=45	=45	=45	=45	=45	=45	=45
(>4F\	pa-	(4f\	pa-	(>4a\	pa-	(>4cc\	pa-
4G\)	.	4c\)	.	4g\)	.	4b-\)	.
(>4A\	-cem	4c\	-cem	4f\	-cem	4a\	-cem
4F\)	.	4A\	da	4a\	da	4cc\	da
!	!	!LO:LB:g=original	!	!	!	!	!
=46	=46	=46	=46	=46	=46	=46	=46
(>4B-\	pa-	(2B-\	pa-	(>4g\	pa-	(>2dd\	pa-
4G\	.	.	.	4b-\	.	.	.
4c\	.	2c\)	.	4a\	.	2ee\)	.
4C/)	.	.	.	4g\)	.	.	.
!	!	!	!	!LO:LB:g=original	!	!LO:LB:g=original	!
=47	=47	=47	=47	=47	=47	=47	=47
2F\	-cem	2c\	-cem	2a\	-cem	2ff\	-cem
(>2A\	do-	2A/	do-	2f\	do-	2cc\	do-
!LO:LB:g=original	!	!	!	!	!	!	!
=48	=48	=48	=48	=48	=48	=48	=48
4B-\	.	1F	-na	1f	-na	(>4dd\	-na
4A\)	.	.	.	.	.	4cc\)	.
(>4G\	-na	.	.	.	.	4b-\	no-
4F\)	.	.	.	.	.	4a\	-bis
=49	=49	=49	=49	=49	=49	=49	=49
(>4E\	no-	2G/	no-	(>4g\	no-	2b-\	no-
4C/)	.	.	.	4e\)	.	.	.
(>4F\	-bis	2A/	-bis	(>4a\	-bis	2cc\	-bis
4AA/)	.	.	.	4f\)	.	.	.
=50	=50	=50	=50	=50	=50	=50	=50
2BB-/	pa-	(2d\	pa-	(>2g\	pa-	(>2b-\	pa-
2C/	.	2c\)	.	2e\)	.	2g\)	.
=51	=51	=51	=51	=51	=51	=51	=51
1F 1FF	-cem.	1c	-cem.	1f	-cem.	1a	-cem.
==	==	==	==	==	==	==	==
*-	*-	*-	*-	*-	*-	*-	*-
!!!system-decoration: [(s1,s2,s3,s4)]
!!!RDF**kern: > = above
!!!RDF**kern: < = below
!!!EED: Antoni Szymański
!!!EST: 2021-02-02
!!!ENC: Andrzej Kubiczek
!!!END: 2021-01-27
